{"type":"map","version":"1.10","tiledversion":"1.11.0","orientation":"orthogonal","renderorder":"right-down","width":76,"height":49,"tilewidth":16,"tileheight":16,"infinite":false,"nextlayerid":4,"nextobjectid":41,"properties":[{"name":"origen_i","type":"int","value":215},{"name":"origen_j","type":"int","value":392}],"tilesets":[{"firstgid":1,"name":"pueblo","image":"pueblo.png","imagewidth":256,"imageheight":192,"tilewidth":16,"tileheight":16,"tilecount":192,"columns":16,"margin":0,"spacing":0}],"layers":[{"id":1,"name":"suelo","type":"tilelayer","width":76,"height":49,"x":0,"y":0,"opacity":1,"visible":true,"data":[7,8,28,28,28,28,28,7,8,8,3,2,6,2,3,3,2,28,28,28,28,28,28,28,182,182,28,28,28,28,7,8,28,28,28,28,28,28,28,15,7,8,7,18,9,187,28,28,28,28,28,28,28,28,28,28,28,6,4,6,5,4,2,6,5,2,6,3,6,3,4,3,4,4,2,3,7,7,7,7,21,9,11,7,7,7,17,3,3,2,4,4,4,28,28,28,28,28,28,28,4,2,3,2,3,7,7,7,28,28,28,28,28,28,28,8,7,7,7,17,28,28,28,28,28,28,28,28,28,28,28,28,28,6,2,190,28,28,28,28,28,28,6,6,4,5,4,4,4,3,4,2,12,7,7,7,7,21,15,7,8,7,17,3,4,186,182,28,28,28,28,28,28,28,28,187,6,3,2,4,6,8,8,8,28,28,28,28,28,28,7,7,7,8,18,28,28,28,28,28,28,28,28,28,28,28,28,28,28,182,184,28,28,28,28,28,28,28,4,6,3,2,3,2,4,3,2,2,4,4,7,8,8,8,7,24,7,7,28,28,28,28,28,28,28,28,28,28,28,28,28,191,6,4,4,2,4,7,7,8,28,28,28,28,28,28,7,7,7,18,9,28,28,28,28,28,28,28,28,28,28,28,28,28,28,28,28,28,28,28,28,28,28,28,4,6,4,2,4,4,3,2,3,3,2,2,2,7,7,7,7,7,7,7,28,28,28,28,28,28,28,28,28,28,28,28,28,28,28,182,182,182,180,7,7,7,28,28,28,28,28,8,8,7,18,9,192,28,28,28,28,28,28,28,28,28,28,28,28,28,28,28,28,28,28,28,28,28,28,28,4,5,2,6,2,4,2,4,4,3,6,3,5,2,3,7,7,7,7,8,28,28,28,28,28,28,28,28,28,28,28,28,28,28,28,28,28,28,187,8,7,7,7,7,7,7,7,7,7,18,28,184,28,28,28,28,28,28,28,28,28,28,28,28,28,28,28,28,28,28,28,28,28,28,28,28,2,5,6,2,4,3,3,3,2,3,4,6,3,28,28,3,7,7,7,7,28,28,28,28,28,28,28,28,28,28,28,28,28,28,28,182,182,182,183,7,7,7,7,7,7,7,8,8,28,28,28,28,28,28,28,28,28,28,28,28,28,28,28,28,28,28,28,28,28,28,28,28,28,28,28,28,2,6,2,6,2,3,4,2,2,2,28,182,182,28,28,4,4,4,7,7,7,28,28,28,28,28,28,28,28,28,28,28,28,28,2,4,2,5,3,7,8,7,7,8,8,18,10,28,28,28,28,28,28,28,28,28,28,28,28,28,28,28,28,28,28,28,28,28,28,28,28,28,28,28,28,28,4,4,6,3,5,3,3,4,2,4,28,28,28,28,28,2,3,6,7,7,7,28,28,28,28,28,28,28,28,28,28,28,28,28,2,3,2,4,2,7,7,8,18,10,28,28,28,28,28,28,28,28,28,28,28,28,28,28,28,28,28,28,28,28,28,28,28,28,28,28,28,28,28,28,28,28,4,3,5,6,5,3,3,2,3,3,28,28,28,28,5,6,4,2,8,8,7,28,28,28,28,28,28,28,28,28,28,28,28,28,3,2,2,5,3,7,8,7,17,2,28,28,28,28,28,28,28,28,28,28,28,28,28,28,28,28,28,28,28,28,28,28,28,28,28,28,28,28,28,28,28,28,3,3,6,3,4,3,3,4,3,2,28,28,28,28,4,2,6,5,7,7,7,28,28,28,28,28,28,28,28,28,28,28,28,28,4,3,5,2,2,7,7,7,17,4,28,28,28,28,28,28,28,28,28,28,28,28,28,28,28,28,28,28,28,28,28,28,28,28,28,28,28,28,28,28,28,28,5,5,5,3,4,4,4,2,3,4,28,28,28,28,4,5,5,5,2,7,7,28,28,28,28,28,28,28,28,28,28,28,28,28,2,2,5,2,6,7,7,7,17,3,28,28,28,28,28,28,28,28,28,28,28,28,28,28,28,28,28,28,28,28,28,28,28,28,28,28,28,28,28,28,28,28,2,5,6,5,5,4,3,4,3,2,28,28,28,28,6,6,4,6,5,7,8,28,28,28,28,28,28,28,28,28,28,28,28,28,6,6,6,6,4,8,7,7,17,4,28,28,28,28,28,28,28,28,28,28,28,28,28,28,28,28,28,28,28,28,28,28,28,4,2,2,3,4,2,4,3,2,6,5,6,2,3,4,3,3,2,4,13,13,13,13,13,13,13,13,15,7,8,21,13,13,28,28,28,28,28,28,28,28,28,28,5,5,5,3,7,7,8,7,17,9,28,28,28,28,28,28,28,28,28,28,28,2,3,28,28,28,28,28,28,28,28,28,28,3,3,3,4,3,4,2,4,3,2,3,2,2,2,3,4,3,4,3,7,7,7,7,7,7,7,7,7,7,7,7,7,7,8,7,8,7,7,7,7,7,7,7,8,7,7,23,8,7,8,8,21,13,13,13,13,13,13,13,13,13,13,13,13,13,13,13,13,9,9,9,9,9,9,9,9,3,2,3,3,3,3,2,2,2,3,4,2,2,2,2,2,2,3,3,7,7,7,7,7,7,7,7,7,7,7,8,7,8,7,7,8,7,7,7,7,7,7,7,7,7,7,7,7,7,7,8,7,7,7,8,7,7,7,7,7,7,7,7,7,8,7,7,7,21,13,13,13,13,13,13,13,13,13,13,13,13,13,13,13,13,13,13,13,13,13,13,13,13,13,13,7,7,7,7,8,7,7,7,7,7,7,7,7,8,7,7,7,7,7,7,8,7,7,7,8,7,7,7,7,8,7,7,26,7,8,7,7,7,8,7,8,7,7,7,7,7,7,7,7,7,7,8,7,7,7,7,8,7,7,7,8,7,8,7,7,8,7,7,7,7,8,7,8,8,7,7,28,28,10,10,10,10,10,10,12,7,7,7,18,10,12,8,7,8,7,7,7,7,7,8,7,7,7,7,8,7,7,26,25,26,7,7,7,8,7,7,7,8,7,7,7,7,8,7,7,7,7,7,7,7,7,8,7,7,7,7,7,7,7,7,7,7,7,8,7,7,7,7,7,7,7,7,28,28,182,182,182,182,182,182,184,12,7,7,17,9,28,28,28,28,28,28,28,28,28,28,28,28,28,28,28,28,26,25,26,25,26,10,10,10,10,10,10,10,10,10,12,8,8,8,7,7,7,7,7,7,7,7,8,7,7,7,7,8,7,7,7,7,8,7,7,7,7,7,8,7,7,7,28,28,28,28,28,28,28,28,28,188,7,8,21,9,28,28,28,28,28,28,28,28,28,28,28,28,28,28,28,28,25,26,25,26,25,26,25,26,25,26,25,26,25,26,25,26,25,26,25,26,25,26,25,26,25,26,25,26,25,26,25,26,25,26,25,10,10,10,10,10,10,10,10,10,10,10,28,28,28,28,28,28,28,28,28,187,7,7,7,17,28,28,28,28,28,28,28,28,28,28,28,28,28,28,28,28,26,25,26,25,26,25,26,25,26,25,26,25,26,25,26,25,26,25,26,25,26,25,26,25,26,25,26,25,26,25,26,25,26,25,26,2,3,2,3,2,2,9,9,9,9,9,28,28,28,28,28,28,28,28,28,187,7,7,7,17,28,28,28,28,28,28,28,28,28,28,28,28,28,28,28,28,25,26,25,26,25,26,25,26,25,26,25,26,25,26,25,26,25,26,25,26,25,26,25,26,25,26,25,26,25,26,25,26,25,26,25,190,182,182,182,182,184,3,4,3,2,2,28,28,28,182,182,182,182,182,182,183,7,7,8,17,28,28,28,28,28,28,28,28,28,28,28,28,28,28,28,28,26,25,26,25,26,25,26,25,26,25,26,25,26,25,26,25,26,25,26,25,26,25,26,25,26,25,26,25,26,25,26,25,26,3,188,28,28,28,28,28,28,188,2,2,3,3,28,28,28,3,5,5,6,5,6,2,7,7,7,17,28,28,28,28,28,28,28,28,28,28,28,28,28,28,28,28,25,26,25,26,25,26,25,26,25,26,25,26,25,26,25,26,25,26,25,26,25,26,25,26,25,3,3,4,2,4,4,4,4,2,187,28,28,28,28,28,28,187,2,2,3,3,28,28,28,3,5,2,2,2,4,3,12,7,7,17,28,28,28,28,28,28,28,28,28,28,28,28,28,28,28,28,26,25,26,25,26,25,26,25,26,25,26,25,26,25,26,25,26,25,26,25,26,25,26,25,26,3,3,4,2,2,2,3,4,2,28,28,28,28,28,28,28,28,28,28,28,28,28,28,28,4,4,5,3,2,4,2,11,8,7,21,28,28,28,28,28,28,28,28,28,28,28,28,28,28,28,28,25,26,25,26,25,26,25,26,25,26,25,26,25,26,25,26,25,26,25,26,25,26,25,26,2,3,4,2,4,3,2,2,3,4,28,28,28,28,28,28,28,28,28,28,28,28,28,28,28,3,5,6,2,5,3,6,15,7,7,7,17,28,28,28,28,28,28,28,28,28,28,28,28,28,28,28,26,25,26,25,26,25,26,25,26,25,26,25,26,25,26,25,26,25,26,25,26,25,26,25,2,2,28,28,182,182,182,182,180,4,28,28,28,28,28,28,28,28,28,28,28,28,28,28,28,2,3,2,6,2,7,7,7,7,7,8,17,28,28,28,28,28,28,28,28,28,28,28,28,28,28,15,7,26,25,26,25,26,25,26,25,26,25,26,25,26,25,26,25,26,25,26,25,26,25,26,2,28,28,28,28,28,28,28,187,3,28,28,28,28,28,28,28,28,28,28,28,28,28,182,28,28,8,7,7,7,8,7,7,7,7,7,17,28,28,28,28,28,28,28,28,28,28,28,28,13,15,7,7,25,26,25,26,25,26,25,26,25,26,25,26,25,26,25,26,25,26,25,26,25,9,3,28,28,28,28,28,28,28,28,28,4,28,28,28,28,28,28,28,28,28,28,28,28,28,7,7,7,7,7,8,8,7,7,20,8,8,7,17,28,28,28,28,28,28,28,28,28,28,28,15,7,7,7,7,17,9,3,28,28,28,28,28,28,28,28,25,28,28,28,25,26,11,7,8,17,9,28,28,28,28,28,28,28,28,28,28,3,28,28,28,28,28,28,28,28,28,28,28,28,7,8,7,7,7,7,18,10,10,28,11,7,8,7,17,28,28,28,28,28,28,28,28,28,13,15,8,8,8,7,28,28,28,28,28,28,28,28,28,28,28,28,28,28,28,28,28,2,11,7,7,17,9,28,28,28,28,28,28,28,28,28,28,4,28,28,28,28,28,28,28,28,28,28,28,28,7,7,18,28,28,28,28,28,28,28,28,12,7,7,17,28,28,28,28,28,28,28,28,15,7,7,7,7,7,22,28,28,28,28,28,28,28,28,28,28,28,28,28,28,28,28,28,3,11,7,7,21,9,2,28,28,28,28,28,28,28,28,2,2,28,28,28,28,28,28,28,28,28,28,28,28,28,28,28,28,28,28,28,28,28,28,28,11,7,7,17,28,28,28,28,28,28,9,15,7,7,7,7,7,7,7,28,28,28,28,28,28,28,28,28,28,28,28,28,28,28,28,28,4,11,7,7,8,17,4,28,28,28,28,28,28,28,28,4,3,28,28,28,28,28,28,28,28,28,28,28,28,28,28,28,28,28,28,28,28,28,28,28,11,7,7,17,28,28,28,28,28,13,15,7,7,7,8,20,7,7,7,28,28,28,28,28,28,28,28,28,28,28,28,28,28,28,28,28,3,11,7,7,7,17,2,28,28,28,28,28,28,28,28,3,4,28,28,28,28,28,28,28,28,28,28,28,28,28,28,28,28,28,28,28,28,28,28,28,11,7,7,21,28,28,28,9,15,7,7,7,7,7,18,11,7,8,8,17,28,28,28,28,28,28,28,28,28,28,28,28,28,28,28,28,3,9,12,7,7,17,2,28,28,28,28,28,28,28,28,4,4,28,28,28,28,28,28,28,28,28,28,28,28,28,28,28,28,28,28,28,28,28,28,28,11,8,7,7,28,28,9,15,7,7,8,8,18,188,9,11,7,7,7,17,28,28,28,28,28,28,28,28,28,28,28,28,28,28,28,28,28,9,11,7,7,17,3,28,28,28,28,28,28,28,28,3,3,28,28,28,28,28,28,28,28,28,28,28,28,28,28,28,28,28,28,28,28,28,28,28,11,7,7,8,17,13,15,7,8,7,7,18,28,28,182,180,8,8,8,17,28,28,28,28,28,28,28,28,28,28,28,28,28,28,28,28,28,9,11,8,8,17,2,28,28,28,28,28,28,28,28,2,2,28,28,28,28,28,28,28,28,28,28,28,28,28,28,28,28,28,28,28,28,28,28,28,28,7,8,7,23,7,7,7,8,8,18,9,28,28,28,187,12,8,7,17,28,28,28,28,28,28,28,28,28,28,28,28,28,28,28,28,28,9,11,7,8,17,3,28,28,28,28,28,28,28,3,4,4,28,28,28,28,28,28,28,28,28,28,28,28,28,28,28,28,28,28,28,28,28,28,28,28,8,7,7,7,7,7,7,18,190,28,28,28,28,28,179,11,8,7,21,28,28,28,28,28,28,28,28,28,28,28,28,28,28,28,28,28,4,11,8,7,17,3,4,3,28,28,28,28,28,4,2,3,28,28,28,28,28,28,28,28,28,28,28,28,28,28,28,28,28,28,28,28,28,28,28,11,7,7,7,7,7,7,18,28,28,28,28,28,28,28,179,11,7,7,7,17,28,28,28,28,28,28,28,28,28,28,28,28,28,28,28,28,3,11,7,7,21,13,13,13,13,13,13,13,13,13,13,13,13,13,13,13,13,13,13,13,13,13,9,9,28,28,28,28,28,28,28,28,28,28,13,15,7,8,7,7,7,186,180,28,28,28,28,28,28,28,179,11,7,8,7,17,28,28,28,28,28,28,28,28,28,28,28,28,28,28,28,179,2,11,7,7,7,7,7,7,7,8,7,7,7,7,7,8,7,8,7,8,7,7,7,7,7,8,21,13,28,28,28,28,28,28,28,28,28,15,7,8,7,7,8,18,186,28,28,28,28,28,28,28,28,28,183,11,7,7,7,17,28,28,28,28,28,28,28,28,28,28,28,28,28,28,28,28,3,11,7,8,7,7,7,7,7,8,7,7,8,7,7,7,7,7,8,7,7,7,7,7,7,7,7,8,28,28,28,28,28,28,28,13,15,7,7,7,7,7,8,21,187,28,28,28,28,28,28,28,28,28,28,188,7,8,7,17,28,28,28,28,28,28,28,28,28,28,28,28,28,28,28,28,3,11,7,8,7,7,7,7,7,7,7,7,7,8,7,7,7,7,7,7,7,7,7,7,7,7,8,7,28,28,28,28,28,13,15,7,7,8,7,7,20,7,7,8,187,28,28,28,28,28,28,28,28,28,28,187,7,7,7,17,28,28,28,28,28,28,28,28,28,28,28,28,28,28,28,28,2,11,7,7,8,18,10,28,28,28,28,28,28,28,28,28,28,28,28,28,28,28,28,28,28,28,28,28,28,28,28,28,15,7,7,7,7,7,18,10,11,7,7,8,191,28,28,28,28,28,28,28,28,28,28,187,12,8,8,17,28,28,28,28,28,28,28,28,28,28,28,28,28,28,28,28,180,11,7,7,8,17,3,28,28,28,28,28,28,28,28,28,28,28,28,28,28,28,28,28,28,28,28,28,28,28,13,15,7,7,7,8,28,28,28,180,11,7,7,7,17,186,28,28,28,28,28,28,28,28,28,187,11,7,7,17,9,28,28,28,28,28,28,28,28,28,28,28,28,189,182,181,183,11,8,7,7,17,4,28,28,28,28,28,28,28,28,28,28,28,28,28,28,28,28,28,28,28,28,28,13,15,8,7,8,7,8,18,28,28,28,183,11,7,7,7,17,185,28,28,28,28,28,28,28,28,28,179,11,7,7,21,9,28,28,28,28,28,28,28,28,28,182,182,184,13,13,13,13,15,7,7,7,17,3,28,28,28,28,28,28,28,28,28,28,28,28,28,28,28,28,28,28,28,28,28,7,7,7,7,7,18,10,28,28,28,28,28,188,7,8,7,17,187,28,28,28,28,28,28,28,28,181,183,11,7,7,7,21,28,28,13,13,13,13,15,7,7,8,7,8,7,7,8,7,7,7,7,8,17,9,28,28,28,28,28,28,28,28,28,28,28,28,28,28,28,28,28,28,28,28,28,7,8,7,8,18,190,182,28,28,28,28,28,179,7,7,7,17,189,182,28,28,181,184,13,13,13,13,13,15,7,7,8,7,7,7,7,7,8,7,7,7,7,7,7,8,7,7,7,7,7,7,8,7,17,9,28,28,28,28,28,28,28,28,28,28,28,28,28,28,28,28,28,28,28,28,28]},{"id":2,"name":"edificios","type":"tilelayer","width":76,"height":49,"x":0,"y":0,"opacity":1,"visible":true,"data":[0,0,114,115,116,114,115,0,0,0,0,0,0,0,0,0,0,174,166,161,163,0,173,167,0,0,129,130,132,129,0,0,154,146,146,145,145,147,44,0,0,0,0,0,0,0,0,0,0,0,0,0,0,0,157,149,152,0,0,0,0,0,0,0,0,0,0,0,0,0,0,0,0,0,0,0,0,0,0,0,0,0,0,0,0,0,0,0,0,0,0,0,0,67,65,169,163,0,66,67,0,0,0,0,0,0,0,0,153,145,145,145,145,151,33,0,0,0,0,0,154,148,0,0,0,0,0,0,0,0,65,66,67,0,0,0,170,162,162,162,162,164,0,0,0,0,0,0,0,0,0,0,0,0,0,0,0,0,0,0,0,0,0,0,0,0,0,65,66,67,156,169,163,0,0,0,0,0,0,0,0,0,0,0,157,149,149,149,151,42,0,0,0,0,0,158,149,151,0,0,0,0,0,0,0,0,0,154,148,0,0,0,169,161,161,161,161,163,0,0,0,0,0,0,0,0,0,0,0,0,0,0,0,0,0,0,0,0,170,162,162,164,0,0,0,0,155,169,163,0,0,0,0,0,0,0,0,0,0,0,44,41,44,43,44,35,0,0,0,0,0,34,35,33,0,0,0,0,0,0,154,146,146,145,147,0,0,0,173,161,161,161,161,163,0,0,0,0,0,0,0,0,0,0,0,0,0,0,0,0,0,0,0,0,169,161,161,161,164,0,0,0,155,169,163,0,0,0,172,0,0,0,0,0,0,0,33,34,36,33,34,0,0,0,0,0,0,0,0,0,0,0,158,146,146,146,145,145,145,145,147,0,0,0,50,169,161,161,161,163,0,0,0,0,0,0,0,0,0,0,0,0,0,0,0,0,0,0,0,0,173,161,161,161,167,0,0,67,155,169,163,0,0,0,175,0,0,0,0,0,0,0,0,0,0,0,0,0,0,0,172,0,0,0,0,0,0,0,50,153,145,145,145,145,145,145,145,146,148,0,0,169,161,161,161,163,0,0,0,0,0,0,0,0,0,0,0,0,0,170,164,0,0,0,0,0,35,169,161,163,33,0,0,0,155,169,163,0,0,0,84,0,0,0,0,0,0,0,0,0,0,0,0,0,170,162,163,0,0,0,0,0,0,154,148,153,145,145,145,145,145,145,145,145,145,152,0,169,161,161,161,163,0,0,0,0,0,0,0,0,0,0,152,0,0,169,167,0,0,0,0,0,0,169,161,163,154,148,0,0,155,169,163,0,170,164,0,0,0,0,0,0,0,0,0,0,0,0,0,170,161,161,161,164,154,148,0,0,0,153,147,157,145,145,145,145,145,145,145,149,151,49,0,169,161,161,161,163,0,0,0,0,0,0,0,0,0,0,133,0,0,171,85,0,0,0,0,0,0,169,161,163,153,147,0,0,155,169,161,162,161,163,0,0,0,0,0,0,0,0,0,0,170,162,162,161,161,161,161,163,153,147,0,0,0,153,147,51,153,145,145,145,145,145,147,50,51,170,162,161,161,161,161,163,0,0,0,0,0,0,0,0,0,0,172,0,170,163,0,0,0,0,0,0,0,169,161,163,153,147,0,154,151,169,161,161,161,163,0,0,0,0,0,0,0,0,0,0,169,161,161,161,161,161,161,163,153,145,146,146,148,153,145,148,153,145,145,145,145,145,147,170,162,161,161,161,161,161,161,163,0,0,0,0,0,0,0,0,0,0,169,162,161,163,0,0,0,0,0,0,0,169,161,163,153,145,146,147,65,169,161,161,161,163,0,0,0,0,0,0,0,0,0,0,169,161,161,161,161,161,161,163,153,145,145,145,147,153,145,147,153,145,145,145,145,145,147,173,165,165,165,165,165,165,165,167,0,0,0,0,0,0,0,0,0,0,173,165,165,167,0,0,0,0,0,0,0,173,165,167,153,145,145,147,170,161,161,161,161,163,0,0,0,0,0,0,0,0,0,0,169,161,161,161,161,161,161,163,153,145,145,149,151,153,145,147,153,145,145,145,145,145,147,50,51,49,50,52,49,50,51,49,0,0,0,0,0,0,0,0,0,0,85,85,84,85,0,0,0,0,0,0,0,33,38,35,157,149,149,151,173,165,165,165,165,167,0,0,0,0,0,0,0,0,0,0,173,165,165,165,165,165,165,167,157,149,151,33,34,157,149,151,157,149,149,149,149,149,151,0,0,0,0,0,0,0,0,0,0,0,0,0,0,0,0,0,0,0,0,0,0,0,0,0,0,0,0,0,0,0,0,0,67,65,68,67,65,66,67,68,66,67,0,0,0,0,0,0,0,0,0,0,66,67,65,66,68,65,66,67,33,36,35,0,0,50,52,49,49,50,51,52,50,51,49,0,0,0,0,0,0,0,0,0,0,0,0,0,0,0,0,0,0,0,0,0,0,0,0,0,0,0,0,0,0,0,0,0,0,0,0,0,0,0,0,0,0,0,0,0,0,0,0,0,0,0,0,0,0,0,0,0,0,0,0,0,0,0,0,0,0,0,0,0,0,0,0,0,0,0,0,0,0,0,0,0,0,0,0,0,0,0,0,0,0,0,0,0,0,0,0,0,0,0,0,0,0,0,0,0,0,0,0,0,0,0,0,0,0,0,0,0,0,0,0,0,0,0,0,0,0,0,0,0,0,0,0,0,0,0,0,0,0,0,0,0,0,0,0,0,0,0,0,0,0,0,0,0,0,0,0,0,0,0,0,0,0,0,0,0,0,0,0,0,0,0,0,0,0,0,0,0,0,0,0,0,0,0,0,0,0,0,0,0,0,0,0,0,0,0,0,0,0,0,0,0,0,0,0,0,0,0,0,0,0,0,0,0,0,0,0,0,0,0,0,0,0,0,0,0,0,0,0,0,0,0,0,0,0,0,0,0,0,0,0,0,0,0,0,0,0,0,170,164,0,0,0,0,0,0,0,0,0,0,0,0,0,0,0,0,0,0,0,0,0,0,0,0,0,0,0,0,0,0,0,0,0,0,0,0,0,0,0,0,0,0,0,0,0,0,0,0,0,0,0,0,0,0,0,0,0,0,0,0,0,0,0,0,0,0,0,0,0,0,0,0,0,0,161,163,0,0,0,0,0,0,0,0,0,0,0,0,170,162,162,162,162,162,162,162,162,162,162,162,162,162,162,164,0,0,0,0,0,0,0,0,0,0,0,0,0,0,0,0,0,0,0,0,0,0,0,0,0,0,0,0,0,0,0,0,0,0,0,0,0,0,0,0,0,0,0,0,0,0,161,163,0,0,0,0,0,0,0,0,0,0,0,0,169,161,161,161,161,161,161,161,161,161,161,161,161,161,161,163,0,0,0,0,0,0,0,0,0,0,0,0,0,0,0,0,0,0,0,0,0,0,0,0,0,0,0,0,0,0,0,0,0,0,0,0,0,0,0,0,0,0,0,0,0,0,161,161,164,0,0,0,0,0,0,0,0,0,0,0,169,161,161,161,161,161,161,161,161,161,161,161,161,161,161,163,0,0,0,0,0,0,0,0,0,0,0,0,0,0,0,0,0,0,0,0,0,0,0,0,0,0,0,0,0,0,0,0,0,0,0,0,0,0,0,0,0,0,0,0,0,0,161,161,163,0,0,0,0,0,0,0,0,0,0,0,169,161,161,161,161,161,161,161,161,161,161,161,161,161,161,163,0,0,0,0,0,0,0,0,0,0,0,0,0,0,0,0,0,0,0,0,0,0,0,0,0,0,0,0,0,0,0,0,0,0,0,0,0,0,0,0,0,0,0,0,0,0,165,161,163,0,0,0,0,0,0,0,0,0,0,0,173,161,161,161,161,161,161,161,161,161,161,161,161,161,161,163,0,0,0,0,0,0,0,0,0,0,0,0,0,0,0,0,0,0,0,0,0,0,0,0,0,0,0,0,0,0,0,0,0,0,0,0,0,0,0,0,0,0,0,0,0,0,53,169,163,0,0,0,0,0,0,0,0,0,0,0,44,169,161,161,161,161,161,161,161,161,161,161,161,161,161,167,0,0,0,0,0,0,0,0,0,0,0,0,0,0,0,0,0,0,0,0,0,0,0,0,0,0,0,0,0,0,0,0,0,0,0,0,0,0,0,0,0,0,0,0,0,0,0,173,163,0,0,0,0,0,0,0,0,0,0,0,44,169,161,161,161,161,161,161,161,161,161,161,161,165,167,43,0,0,0,0,0,0,0,0,0,0,0,0,0,0,0,0,0,0,0,0,0,0,0,0,0,0,0,0,0,0,0,0,0,0,170,162,162,162,162,162,162,164,170,162,162,162,0,53,171,0,0,0,0,0,0,0,0,0,0,0,37,169,161,161,161,161,161,161,161,161,161,161,167,41,44,43,0,0,0,0,0,0,0,0,0,0,0,0,0,0,0,0,0,0,0,0,0,0,0,0,0,0,0,0,0,0,0,0,0,0,169,161,161,161,161,161,161,163,169,161,161,161,0,0,171,0,0,0,0,0,0,0,0,0,0,0,0,169,161,161,161,161,161,161,161,161,165,167,44,41,44,37,0,0,0,0,0,0,0,0,0,0,0,0,0,0,0,0,0,0,0,0,0,0,0,0,0,0,170,164,0,0,0,0,0,0,169,161,161,161,161,161,161,163,169,161,161,161,172,0,175,0,0,0,0,0,0,0,0,0,0,0,0,169,161,161,161,161,161,161,161,167,44,42,44,37,36,0,0,0,0,0,0,0,0,0,0,0,0,0,0,0,0,0,0,0,0,0,0,0,0,0,0,170,161,163,0,0,0,0,0,0,169,161,161,161,161,161,161,163,173,165,161,161,167,0,53,53,0,0,0,0,0,0,0,0,0,0,0,169,161,161,161,161,161,165,167,43,44,42,37,0,0,0,0,0,0,0,0,0,0,0,0,0,0,0,0,0,0,0,0,0,0,0,0,0,0,0,170,161,161,161,162,162,162,162,164,0,169,161,161,161,161,161,161,163,140,139,173,165,53,0,0,0,0,0,0,0,0,0,0,0,0,0,0,169,161,161,161,161,167,41,44,43,37,37,0,0,0,0,0,0,0,0,170,164,129,154,146,146,146,148,0,154,146,148,0,0,0,0,0,0,0,174,161,161,161,161,161,161,161,161,167,0,169,161,161,161,161,161,161,167,133,133,140,138,0,0,0,0,0,0,0,0,0,156,0,0,0,0,0,169,161,161,165,167,44,41,44,37,0,0,0,0,0,0,170,162,162,162,161,161,164,153,145,145,145,147,154,145,145,145,148,0,0,0,0,0,0,37,169,161,161,161,161,161,161,163,37,0,169,161,161,161,161,161,163,139,0,0,133,133,0,0,0,154,146,146,146,146,146,145,148,0,0,0,0,169,161,167,44,42,44,37,37,0,0,0,0,0,0,0,169,161,161,161,161,161,163,153,145,145,145,147,153,145,145,145,147,0,0,0,0,0,0,0,169,161,161,161,161,161,161,163,0,0,169,161,161,161,161,161,163,133,0,0,0,0,133,154,146,145,145,145,145,145,145,145,147,0,0,0,0,173,167,43,44,42,37,0,0,0,0,0,0,0,0,0,90,169,161,161,161,161,163,153,145,145,145,147,153,145,145,145,147,0,0,0,0,0,0,0,169,161,161,161,161,161,161,163,0,0,169,161,161,161,161,161,163,170,162,162,162,162,148,157,145,145,145,145,145,145,145,145,147,0,0,0,0,41,44,43,37,37,0,0,0,0,0,0,0,0,0,0,84,169,161,161,161,161,163,153,145,145,145,147,153,145,145,145,147,0,0,0,0,0,0,0,169,161,161,161,161,161,161,163,0,0,169,161,161,161,161,161,163,169,161,161,161,161,147,133,157,153,145,145,145,145,145,145,147,0,0,0,0,41,44,37,0,0,0,0,0,0,0,0,0,0,0,0,0,169,161,161,161,161,163,153,145,145,145,147,153,145,145,145,147,0,0,0,0,0,0,0,169,161,161,161,161,161,161,163,0,0,169,161,161,161,161,161,163,169,161,161,161,161,137,152,140,157,145,145,145,145,145,145,147,0,0,0,0,37,37,0,0,0,0,0,0,0,0,0,0,0,0,0,0,169,161,161,161,161,163,153,145,145,145,147,153,145,145,145,145,148,0,0,0,0,0,0,169,161,161,161,161,161,161,167,0,0,169,161,161,161,161,161,163,169,161,161,161,161,129,130,133,138,157,145,145,145,145,145,151,0,0,0,0,0,0,0,0,0,0,0,0,154,148,0,0,0,0,0,0,173,161,161,161,161,163,157,145,145,145,151,153,145,145,145,145,147,0,0,0,0,0,0,173,165,161,161,161,161,163,37,0,0,173,165,165,165,165,165,167,169,161,161,161,161,0,0,0,138,140,153,145,145,145,151,140,152,0,0,0,0,0,0,0,0,0,0,0,153,147,0,0,0,0,0,0,91,169,161,161,161,163,137,153,145,147,138,153,145,145,149,149,151,0,0,0,0,0,0,37,37,173,165,165,165,167,0,0,0,138,139,137,138,139,137,138,173,165,165,165,165,0,0,156,133,140,157,145,149,151,138,140,133,0,0,0,0,0,0,0,0,0,33,158,42,43,152,0,0,0,0,0,85,169,161,161,161,163,137,153,145,151,138,157,145,151,124,122,124,0,0,0,0,0,0,0,0,37,37,36,37,37,0,0,0,133,133,133,132,133,133,133,85,85,85,84,85,146,146,145,148,133,137,159,139,140,138,133,0,0,0,0,0,0,0,0,34,0,0,34,35,33,34,0,0,0,0,0,0,169,161,161,161,163,130,153,147,140,131,121,159,123,117,117,117,0,0,0,0,0,0,0,0,0,0,0,0,0,0,0,0,0,0,0,0,0,0,0,0,0,0,0,0,145,145,145,145,148,137,140,139,140,133,0,0,0,0,0,0,0,0,0,0,0,0,0,154,146,148,0,0,0,0,0,0,169,161,161,161,161,164,153,147,140,160,117,124,117,154,148,0,0,0,0,0,0,0,0,0,0,0,0,0,0,0,0,0,0,0,0,0,0,0,0,0,0,0,0,0,145,145,145,145,147,133,140,133,132,0,0,0,0,0,0,0,0,131,154,146,152,129,0,153,145,147,0,0,0,0,0,0,173,165,165,161,161,163,153,147,130,117,172,117,158,145,145,148,0,0,0,0,0,0,0,0,0,0,0,0,0,0,0,0,0,0,0,0,0,0,0,0,0,0,0,0,145,145,149,151,138,131,133,0,0,0,0,0,0,0,0,0,0,0,153,147,131,34,158,159,41,42,0,0,0,0,0,0,89,90,91,173,165,163,153,147,51,170,161,164,35,159,43,147,0,0,0,0,0,0,0,0,0,0,0,0,0,0,0,0,0,0,0,0,0,0,0,0,0,0,0,0,149,151,139,140,130,0,0,0,0,0,0,0,0,0,0,0,0,0,137,138,0,0,35,43,34,35,0,0,0,0,0,0,85,85,85,89,90,175,157,151,130,173,59,167,49,42,34,41,0,0,0,0,0,0,0,170,162,162,162,162,162,162,162,162,162,162,162,162,162,162,162,162,162,162,162,162,137,140,131,132,0,0,0,0,0,0,0,0,0,0,0,0,0,0,129,130,156,0,0,33,154,148,0,0,0,0,0,0,50,170,164,85,85,91,140,139,51,49,50,51,35,33,0,35,0,0,0,0,0,0,0,169,161,161,161,161,161,161,161,161,161,161,161,161,161,161,161,161,161,161,161,161,129,130,0,0,0,0,0,0,154,146,148,0,0,0,0,0,0,0,158,146,145,148,0,0,153,147,0,0,0,0,0,0,0,169,161,166,168,85,140,139,150,152,0,0,0,0,0,0,0,0,0,0,0,0,0,169,161,161,161,161,161,161,161,161,161,161,161,161,161,161,161,161,161,161,161,161,0,0,0,0,0,0,0,0,153,145,147,0,0,0,0,0,0,0,35,153,151,151,33,158,58,60,50,0,0,0,0,0,0,173,167,50,54,49,131,129,134,131,0,0,0,0,0,0,0,0,0,0,0,0,0,169,161,161,161,161,161,161,161,161,161,161,161,161,161,161,161,161,161,161,161,161,0,0,0,0,0,0,0,158,157,151,42,0,0,0,0,0,0,0,0,41,42,35,0,50,52,49,0,0,0,0,0,0,0,51,49,0,0,0,0,0,0,0,0,0,0,0,0,0,0,0,0,0,0,0,0,169,161,161,161,161,161,161,161,161,161,161,161,161,161,161,161,161,161,161,161,161,0,0,0,0,0,0,0,34,43,41,34,35,0,0,0,0,0,0,0,33,36,0,0,0,0,0,0,0,0,0,0,0,0,0,0,0,0,0,0,0,0,0,0,0,0,0,0,0,0,0,0,0,0,0,0,173,161,161,161,161,161,161,161,161,161,161,161,161,161,161,161,161,161,161,161,161]},{"id":3,"name":"objetos","type":"objectgroup","draworder":"topdown","x":0,"y":0,"opacity":1,"visible":true,"objects":[{"id":1,"name":"arbol","type":"arbol","x":104,"y":782,"width":0,"height":0,"point":true,"properties":[{"name":"radio","type":"int","value":1}]},{"id":2,"name":"arbol","type":"arbol","x":424,"y":574,"width":0,"height":0,"point":true,"properties":[{"name":"radio","type":"int","value":2}]},{"id":3,"name":"arbol","type":"arbol","x":968,"y":430,"width":0,"height":0,"point":true,"properties":[{"name":"radio","type":"int","value":2}]},{"id":4,"name":"arbol","type":"arbol","x":632,"y":462,"width":0,"height":0,"point":true,"properties":[{"name":"radio","type":"int","value":1}]},{"id":5,"name":"arbol","type":"arbol","x":760,"y":382,"width":0,"height":0,"point":true,"properties":[{"name":"radio","type":"int","value":4}]},{"id":6,"name":"arbol","type":"arbol","x":632,"y":366,"width":0,"height":0,"point":true,"properties":[{"name":"radio","type":"int","value":3}]},{"id":7,"name":"arbol","type":"arbol","x":568,"y":414,"width":0,"height":0,"point":true,"properties":[{"name":"radio","type":"int","value":1}]},{"id":8,"name":"arbol","type":"arbol","x":72,"y":398,"width":0,"height":0,"point":true,"properties":[{"name":"radio","type":"int","value":1}]},{"id":9,"name":"arbol","type":"arbol","x":984,"y":334,"width":0,"height":0,"point":true,"properties":[{"name":"radio","type":"int","value":1}]},{"id":10,"name":"arbol","type":"arbol","x":936,"y":334,"width":0,"height":0,"point":true,"properties":[{"name":"radio","type":"int","value":1}]},{"id":11,"name":"arbol","type":"arbol","x":552,"y":318,"width":0,"height":0,"point":true,"properties":[{"name":"radio","type":"int","value":1}]},{"id":12,"name":"arbol","type":"arbol","x":72,"y":318,"width":0,"height":0,"point":true,"properties":[{"name":"radio","type":"int","value":1}]},{"id":13,"name":"arbol","type":"arbol","x":440,"y":110,"width":0,"height":0,"point":true,"properties":[{"name":"radio","type":"int","value":5}]},{"id":14,"name":"arbol","type":"arbol","x":1096,"y":78,"width":0,"height":0,"point":true,"properties":[{"name":"radio","type":"int","value":1}]},{"id":15,"name":"arbol","type":"arbol","x":360,"y":62,"width":0,"height":0,"point":true,"properties":[{"name":"radio","type":"int","value":1}]},{"id":16,"name":"arbol","type":"arbol","x":760,"y":14,"width":0,"height":0,"point":true,"properties":[{"name":"radio","type":"int","value":2}]},{"id":17,"name":"puerta","type":"puerta","x":64,"y":0,"width":16,"height":16,"properties":[{"name":"ref","type":"string","value":"6265506XG9666N"}]},{"id":18,"name":"puerta","type":"puerta","x":544,"y":64,"width":16,"height":16,"properties":[{"name":"ref","type":"string","value":"6366417XG9666N"}]},{"id":19,"name":"puerta","type":"puerta","x":448,"y":0,"width":16,"height":16,"properties":[{"name":"ref","type":"string","value":"6365905XG9666N"}]},{"id":20,"name":"puerta","type":"puerta","x":192,"y":192,"width":16,"height":16,"properties":[{"name":"ref","type":"string","value":"6365911XG9666N"}]},{"id":21,"name":"puerta","type":"puerta","x":384,"y":96,"width":16,"height":16,"properties":[{"name":"ref","type":"string","value":"6365907XG9666N"}]},{"id":22,"name":"puerta","type":"puerta","x":32,"y":192,"width":16,"height":16,"properties":[{"name":"ref","type":"string","value":"6265703XG9666N"}]},{"id":23,"name":"puerta","type":"puerta","x":976,"y":176,"width":16,"height":16,"properties":[{"name":"ref","type":"string","value":"6465102XG9666N"}]},{"id":24,"name":"puerta","type":"puerta","x":688,"y":208,"width":16,"height":16,"properties":[{"name":"ref","type":"string","value":"6465106XG9666N"}]},{"id":25,"name":"puerta","type":"puerta","x":256,"y":208,"width":16,"height":16,"properties":[{"name":"ref","type":"string","value":"6365910XG9666N"}]},{"id":26,"name":"puerta","type":"puerta","x":336,"y":208,"width":16,"height":16,"properties":[{"name":"ref","type":"string","value":"6365909XG9666N"}]},{"id":27,"name":"puerta","type":"puerta","x":608,"y":208,"width":16,"height":16,"properties":[{"name":"ref","type":"string","value":"6465107XG9666N"}]},{"id":28,"name":"puerta","type":"puerta","x":768,"y":208,"width":16,"height":16,"properties":[{"name":"ref","type":"string","value":"6465105XG9666N"}]},{"id":29,"name":"puerta","type":"puerta","x":848,"y":208,"width":16,"height":16,"properties":[{"name":"ref","type":"string","value":"6465104XG9666N"}]},{"id":30,"name":"puerta","type":"puerta","x":448,"y":432,"width":16,"height":16,"properties":[{"name":"ref","type":"string","value":"6364401XG9666S"}]},{"id":31,"name":"puerta","type":"puerta","x":928,"y":608,"width":16,"height":16,"properties":[{"name":"ref","type":"string","value":"6464301XG9666S"}]},{"id":32,"name":"puerta","type":"puerta","x":480,"y":528,"width":16,"height":16,"properties":[{"name":"ref","type":"string","value":"6364601XG9666S"}]},{"id":33,"name":"puerta","type":"puerta","x":48,"y":704,"width":16,"height":16,"properties":[{"name":"ref","type":"string","value":"6264601XG9666S"}]},{"id":34,"name":"puerta","type":"puerta","x":128,"y":656,"width":16,"height":16,"properties":[{"name":"ref","type":"string","value":"6264602XG9666S"}]},{"id":35,"name":"puerta","type":"puerta","x":1072,"y":608,"width":16,"height":16,"properties":[{"name":"ref","type":"string","value":"6464401XG9666S"}]},{"id":36,"name":"puerta","type":"puerta","x":1184,"y":608,"width":16,"height":16,"properties":[{"name":"ref","type":"string","value":"6464403XG9666S"}]},{"id":37,"name":"puerta","type":"puerta","x":576,"y":736,"width":16,"height":16,"properties":[{"name":"ref","type":"string","value":"6364606XG9666S"}]},{"id":38,"name":"puerta","type":"puerta","x":640,"y":736,"width":16,"height":16,"properties":[{"name":"ref","type":"string","value":"6364602XG9666S"}]},{"id":39,"name":"puerta","type":"puerta","x":384,"y":752,"width":16,"height":16,"properties":[{"name":"ref","type":"string","value":"6364903XG9666S"}]},{"id":40,"name":"puerta","type":"puerta","x":320,"y":768,"width":16,"height":16,"properties":[{"name":"ref","type":"string","value":"6364904XG9666S"}]}]}]}